src/assets/disabled_certificate_icon.svg

<svg fill="none" height="80" viewBox="0 0 80 80" width="80" xmlns="http://www.w3.org/2000/svg"><g opacity=".2"><path d="m35.6196 3.80043c2.5132-2.18049 6.2476-2.18049 8.7608 0l1.8594 1.61321c1.5508 1.34544 3.6338 1.90359 5.6495 1.51379l2.4169-.46739c3.2668-.63173 6.5008 1.23544 7.5871 4.38046l.8037 2.3267c.6703 1.9406 2.1952 3.4655 4.1358 4.1358l2.3267.8037c3.145 1.0863 5.0122 4.3203 4.3805 7.5871l-.4674 2.4169c-.3898 2.0157.1683 4.0987 1.5138 5.6495l1.6132 1.8594c2.1805 2.5132 2.1805 6.2476 0 8.7608l-1.6132 1.8594c-1.3455 1.5508-1.9036 3.6338-1.5138 5.6495l.4674 2.4169c.6317 3.2668-1.2355 6.5008-4.3805 7.5871l-2.3267.8037c-1.9406.6703-3.4655 2.1952-4.1358 4.1357l-.8037 2.3268c-1.0863 3.145-4.3203 5.0122-7.5871 4.3805l-2.4169-.4674c-2.0157-.3898-4.0987.1683-5.6495 1.5138l-1.8594 1.6132c-2.5132 2.1805-6.2476 2.1805-8.7608 0l-1.8594-1.6132c-1.5508-1.3455-3.6338-1.9036-5.6495-1.5138l-2.4169.4674c-3.2668.6317-6.5008-1.2355-7.5871-4.3805l-.8037-2.3267c-.6703-1.9406-2.1952-3.4655-4.1358-4.1358l-2.3267-.8037c-3.14502-1.0863-5.01219-4.3203-4.38046-7.5871l.46739-2.4169c.38979-2.0157-.16835-4.0987-1.51379-5.6495l-1.61321-1.8594c-2.18049-2.5132-2.18049-6.2476 0-8.7608l1.61321-1.8594c1.34544-1.5508 1.90359-3.6338 1.51379-5.6495l-.46739-2.4169c-.63173-3.2668 1.23544-6.5008 4.38046-7.5871l2.3267-.8037c1.9406-.6703 3.4655-2.1952 4.1358-4.1358l.8037-2.3267c1.0863-3.14502 4.3203-5.01219 7.5871-4.38046l2.4169.46739c2.0157.38979 4.0987-.16835 5.6495-1.51379z" fill="#abb2bd"/><circle cx="40" cy="40" fill="#fff" r="27.5"/><circle cx="39.9123" cy="39.9128" fill="#abb2bd" r="22.9201"/><path d="m39.5973 52.264c-7.4663 0-11.2982-6.8492-11.4244-7.0174-.0452-.0593-.0695-.132-.0689-.2065v-9.4342c0-.0455.009-.0906.0266-.1326.0175-.042.0432-.0801.0756-.1121s.0708-.0573.113-.0744c.0423-.017.0875-.0256.133-.0251h23.8716c.0455-.0005.0907.0081.1329.0251.0422.0171.0807.0424.113.0744.0324.032.0581.0701.0757.1121.0175.042.0266.0871.0266.1326v9.4342c-.0011.0808.0509-.0628 0 0-.1454.1682-4.2898 7.2239-13.0747 7.2239z" fill="#33343f"/><path d="m27.5864 39.1165 11.3617 5.0316 13.9587-5.6808" stroke="#abb2bd" stroke-width="3.34214"/><path d="m39.0283 43.9538c-.0517 0-.1027-.0118-.1492-.0344l-17.8951-8.176c-.0617-.0261-.1143-.0697-.1514-.1255-.037-.0557-.0567-.1212-.0567-.1881 0-.067.0197-.1324.0567-.1882.0371-.0558.0897-.0994.1514-.1254l19.0583-7.8242c.0875-.0332.1841-.0332.2716 0l18.5226 7.8242c.0626.0262.116.0703.1536.1268s.0576.1228.0576.1906-.02.1341-.0576.1906-.091.1006-.1536.1268l-19.6704 8.176c-.0439.0174-.0906.0264-.1378.0268z" fill="#33343f"/><g fill="#fff"><path d="m50.8165 52.5047h-2.3263c-.0533-.0005-.1058-.0132-.1534-.0371s-.0891-.0585-.1213-.101c-.0321-.0424-.0541-.0918-.0642-.1441s-.008-.1062.006-.1576l1.1479-3.9618c.0208-.072.0646-.1353.1247-.1801.0601-.0449.1332-.0689.2082-.0685.0755-.0007.1492.0232.2099.0681.0607.0448.1052.1082.1268.1805l1.1478 3.9618c.0142.0517.0162.106.0059.1586s-.0326.1021-.0652.1447c-.0326.0425-.0746.077-.1227.1007-.0481.0236-.101.0359-.1547.0358z"/><path d="m50.0019 48.3821h-.6925v-8.7152l-8.8538-4.371.3099-.6157 9.0451 4.4628c.0574.0289.1056.0732.1394.1278.0338.0547.0517.1177.0519.1819z"/></g></g></svg>

<svg width="80" height="80" viewBox="0 0 80 80" fill="none" xmlns="http://www.w3.org/2000/svg">
<g opacity="0.2">
<path d="M35.6196 3.80043C38.1328 1.61994 41.8672 1.61994 44.3804 3.80043L46.2398 5.41364C47.7906 6.75908 49.8736 7.31723 51.8893 6.92743L54.3062 6.46004C57.573 5.82831 60.807 7.69548 61.8933 10.8405L62.697 13.1672C63.3673 15.1078 64.8922 16.6327 66.8328 17.303L69.1595 18.1067C72.3045 19.193 74.1717 22.427 73.54 25.6938L73.0726 28.1107C72.6828 30.1264 73.2409 32.2094 74.5864 33.7602L76.1996 35.6196C78.3801 38.1328 78.3801 41.8672 76.1996 44.3804L74.5864 46.2398C73.2409 47.7906 72.6828 49.8736 73.0726 51.8893L73.54 54.3062C74.1717 57.573 72.3045 60.807 69.1595 61.8933L66.8328 62.697C64.8922 63.3673 63.3673 64.8922 62.697 66.8327L61.8933 69.1595C60.807 72.3045 57.573 74.1717 54.3062 73.54L51.8893 73.0726C49.8736 72.6828 47.7906 73.2409 46.2398 74.5864L44.3804 76.1996C41.8672 78.3801 38.1328 78.3801 35.6196 76.1996L33.7602 74.5864C32.2094 73.2409 30.1264 72.6828 28.1107 73.0726L25.6938 73.54C22.427 74.1717 19.193 72.3045 18.1067 69.1595L17.303 66.8328C16.6327 64.8922 15.1078 63.3673 13.1672 62.697L10.8405 61.8933C7.69548 60.807 5.82831 57.573 6.46004 54.3062L6.92743 51.8893C7.31722 49.8736 6.75908 47.7906 5.41364 46.2398L3.80043 44.3804C1.61994 41.8672 1.61994 38.1328 3.80043 35.6196L5.41364 33.7602C6.75908 32.2094 7.31723 30.1264 6.92743 28.1107L6.46004 25.6938C5.82831 22.427 7.69548 19.193 10.8405 18.1067L13.1672 17.303C15.1078 16.6327 16.6327 15.1078 17.303 13.1672L18.1067 10.8405C19.193 7.69548 22.427 5.82831 25.6938 6.46004L28.1107 6.92743C30.1264 7.31722 32.2094 6.75908 33.7602 5.41364L35.6196 3.80043Z" fill="#ABB2BD"/>
<circle cx="40" cy="40" r="27.5" fill="white"/>
<circle cx="39.9123" cy="39.9128" r="22.9201" fill="#ABB2BD"/>
<path d="M39.5973 52.264C32.131 52.264 28.2991 45.4148 28.1729 45.2466C28.1277 45.1873 28.1034 45.1146 28.104 45.0401V35.6059C28.104 35.5604 28.113 35.5153 28.1306 35.4733C28.1481 35.4313 28.1738 35.3932 28.2062 35.3612C28.2386 35.3292 28.277 35.3039 28.3192 35.2868C28.3615 35.2698 28.4067 35.2612 28.4522 35.2617H52.3238C52.3693 35.2612 52.4145 35.2698 52.4567 35.2868C52.4989 35.3039 52.5374 35.3292 52.5697 35.3612C52.6021 35.3932 52.6278 35.4313 52.6454 35.4733C52.6629 35.5153 52.672 35.5604 52.672 35.6059V45.0401C52.6709 45.1209 52.7229 44.9773 52.672 45.0401C52.5266 45.2083 48.3822 52.264 39.5973 52.264Z" fill="#33343F"/>
<path d="M27.5864 39.1165L38.9481 44.1481L52.9068 38.4673" stroke="#ABB2BD" stroke-width="3.34214"/>
<path d="M39.0283 43.9538C38.9766 43.9538 38.9256 43.942 38.8791 43.9194L20.984 35.7434C20.9223 35.7173 20.8697 35.6737 20.8326 35.6179C20.7956 35.5622 20.7759 35.4967 20.7759 35.4298C20.7759 35.3628 20.7956 35.2974 20.8326 35.2416C20.8697 35.1858 20.9223 35.1422 20.984 35.1162L40.0423 27.292C40.1298 27.2588 40.2264 27.2588 40.3139 27.292L58.8365 35.1162C58.8991 35.1424 58.9525 35.1865 58.9901 35.243C59.0277 35.2995 59.0477 35.3658 59.0477 35.4336C59.0477 35.5014 59.0277 35.5677 58.9901 35.6242C58.9525 35.6807 58.8991 35.7248 58.8365 35.751L39.1661 43.927C39.1222 43.9444 39.0755 43.9534 39.0283 43.9538Z" fill="#33343F"/>
<path d="M50.8165 52.5047H48.4902C48.4369 52.5042 48.3844 52.4915 48.3368 52.4676C48.2892 52.4437 48.2477 52.4091 48.2155 52.3666C48.1834 52.3242 48.1614 52.2748 48.1513 52.2225C48.1412 52.1702 48.1433 52.1163 48.1573 52.0649L49.3052 48.1031C49.326 48.0311 49.3698 47.9678 49.4299 47.923C49.49 47.8781 49.5631 47.8541 49.6381 47.8545C49.7136 47.8538 49.7873 47.8777 49.848 47.9226C49.9087 47.9674 49.9532 48.0308 49.9748 48.1031L51.1226 52.0649C51.1368 52.1166 51.1388 52.1709 51.1285 52.2235C51.1182 52.2761 51.0959 52.3256 51.0633 52.3682C51.0307 52.4107 50.9887 52.4452 50.9406 52.4689C50.8925 52.4925 50.8396 52.5048 50.7859 52.5047H50.8165Z" fill="white"/>
<path d="M50.0019 48.3821H49.3094V39.6669L40.4556 35.2959L40.7655 34.6802L49.8106 39.143C49.868 39.1719 49.9162 39.2162 49.95 39.2708C49.9838 39.3255 50.0017 39.3885 50.0019 39.4527V48.3821Z" fill="white"/>
</g>
</svg>
